packages/ui-icons/src/Basic/16/Logo_16.svg

<svg xmlns="http://www.w3.org/2000/svg" viewBox="0 0 20 20"><path d="M10 2a8 8 0 1 0 8 8 8 8 0 0 0-8-8Zm-7 8a7 7 0 0 1 7-7v6.5H8v7.2A7 7 0 0 1 3 10Zm7 7a7 7 0 0 1-1-.08v-6.43h2V3.07A7 7 0 0 1 10 17Zm1.23-3.5a.75.75 0 1 1-.75-.75.75.75 0 0 1 .75.75ZM7.48 7.25a.75.75 0 1 1 .75-.75.75.75 0 0 1-.75.75Zm5.75 6.25a.75.75 0 1 1-.75-.75.75.75 0 0 1 .75.75Zm2 0a.75.75 0 1 1-.75-.75.75.75 0 0 1 .75.75Z"/></svg>

<svg id="ready" xmlns="http://www.w3.org/2000/svg" viewBox="0 0 20 20"><title>Megaicons_work_16_1.8_cp</title><path d="M10,2a8,8,0,1,0,8,8A8,8,0,0,0,10,2ZM3,10a7,7,0,0,1,7-7v6.5H8V16.7A7,7,0,0,1,3,10Zm7,7a7,7,0,0,1-1-.08V10.49h2V3.07A7,7,0,0,1,10,17Zm1.23-3.5a.75.75,0,1,1-.75-.75A.75.75,0,0,1,11.23,13.5ZM7.48,7.25a.75.75,0,1,1,.75-.75A.75.75,0,0,1,7.48,7.25Zm5.75,6.25a.75.75,0,1,1-.75-.75A.75.75,0,0,1,13.23,13.5Zm2,0a.75.75,0,1,1-.75-.75A.75.75,0,0,1,15.23,13.5Z"/></svg>
